**kern	**kern
*staff2	*staff1
*clefF4	*clefG2
*k[]	*k[]
*M2/4	*M2/4
*C:	*C:
=-	=-
8r	16gLL
.	16ggJJ
=314	=314
8r	16bLL
.	16gg
*clefG2	*
8gL	16b
.	16ggJJ
8e	16cc#LL
.	16gg
8dJ	16dd
.	16ggJJ
=315	=315
4c#	16eeLL
.	16a
.	16cc#
.	16eeJJ
4r	16ggLL
.	16aa
.	16ccc#
.	16aaJJ
=316	=316
4c# 4a	16eeeLL
.	16ddd
.	16ccc#
.	16bbJJ
4c# 4a	16aaLL
.	16gg
.	16ff
.	16eeJJ
=317	=317
4d 4a	16ggLL
.	16ff
.	16ee
.	16ffJJ
4r	16eeLL
.	16ff
.	16gg
.	16ffJJ
=318	=318
8r	16aLL
.	16ff
8fL	16a
.	16ffJJ
8d	16bLL
.	16ff
8cJ	16cc
.	16ffJJ
=319	=319
4B 4g	16ddLL
.	16bb
.	16ddd
.	16cccJJ
4r	16bbLL
.	16aa
.	16gg
.	16ffJJ
=320	=320
4c 4g	16eeLL
.	16gg
.	16ccc
.	16bbJJ
4r	16aaLL
.	16gg
.	16ff
.	16eeJJ
*clefF4	*
=321	=321
4G 4B	16ddLL
.	16g
.	16f#
.	16gJJ
4r	16aLL
.	16b
.	16cc
.	16ddJJ
=322	=322
*-	*-
